X:24
T: Yang yanmai
N: C0032
O: China,Shaanxi, Yaoxian
S: I, 81, 1)]
N: Alle 7 klingen tiefer,  mit Pfeil nach unten in der Vorlage
N: notiert ).
R: Xiaodiao. Xushu laodong shenghuo]
M: 2/4
L: 1/16
K: F
F2_EFD2C2 | F2_EFD2C2 |
c2c2f2d2f2d2 | d2cdc2c2 | f2cfB2G2 | F2_E2z2c2 | G6z2 |
F2G2c2c2 | d2c2B2G2 | c2Bcf2B2 | GBGF_E4 |
Gcc4f2 | B2GBF2_E2 | C2C2F2D2 | C8

@@@ Tune index: 6025
